libs/icons/svgs/operators_not_equal.svg

<?xml version="1.0" encoding="UTF-8"?>
<svg width="24px" height="24px" viewBox="0 0 24 24" version="1.1" xmlns="http://www.w3.org/2000/svg" xmlns:xlink="http://www.w3.org/1999/xlink">
    <title>Not equal to</title>
    <path fill="#000000" d="M9,6 L10.41,7.41 L5.83,12 L10.41,16.59 L9,18 L3,12 L9,6 Z M15.0000002,6 L21.0000002,12 L15.0000002,18 L13.5900002,16.59 L18.1700002,12 L13.5900002,7.41 L15.0000002,6 Z"></path>
</svg>

<svg xmlns="http://www.w3.org/2000/svg" viewBox="0 0 24 24"><path d="m9 6 1.41 1.41L5.83 12l4.58 4.59L9 18l-6-6 6-6Zm6 0 6 6-6 6-1.41-1.41L18.17 12l-4.58-4.59L15 6Z"/></svg>
